X:1
T:Triumphal March (Aida)
C:Giuseppe Verdi
M:4/4
L:1/4
Q:1/4=120
K:Bb
% Pickup (1 beat)
F |
B B B F | G A B c | c B G B | A2 z A |
B B B F | G A B c | d c B G | B4 |]
